app/img/icons/arrow-right.svg

<?xml version="1.0" encoding="UTF-8"?>
<svg width="15px" height="24px" viewBox="0 0 15 24" version="1.1" xmlns="http://www.w3.org/2000/svg" xmlns:xlink="http://www.w3.org/1999/xlink">
    <!-- Generator: Sketch 49.3 (51167) - http://www.bohemiancoding.com/sketch -->
    <title>arrow-right</title>
    <desc>Created with Sketch.</desc>
    <defs></defs>
    <g id="Page-1" stroke="none" stroke-width="1" fill="none" fill-rule="evenodd">
        <g id="Portfolio-desktop" transform="translate(-1336.000000, -464.000000)" fill="#CAC7D7" fill-rule="nonzero">
            <g id="arrow-right" transform="translate(1336.000000, 464.000000)">
                <path d="M14.1504101,11.4515506 L2.9390977,0.240743783 C2.77865802,0.0804726332 2.59403441,0 2.38564821,0 C2.17717775,0 1.99263841,0.0804726332 1.832283,0.240743783 L0.629575254,1.44370432 C0.468967046,1.60405973 0.389,1.78826201 0.389,1.99706954 C0.389,2.20587706 0.468967046,2.39007934 0.629575254,2.55043475 L10.0843934,12.0052529 L0.629575254,21.4602396 C0.468967046,21.620595 0.389,21.8051343 0.389,22.013352 C0.389,22.2220753 0.468967046,22.4066146 0.629575254,22.56697 L1.83236726,23.7695092 C1.99272268,23.9300332 2.17726201,24.0100002 2.38573248,24.0100002 C2.59411868,24.0100002 2.77865802,23.9298647 2.9390977,23.7695092 L14.1498203,12.5586181 C14.3100914,12.398347 14.3903113,12.2137234 14.3903113,12.0052529 C14.3903113,11.7967824 14.3106813,11.6122431 14.1504101,11.4515506 Z" id="Shape"></path>
            </g>
        </g>
    </g>
</svg>

<svg width="15" height="24" xmlns="http://www.w3.org/2000/svg"><path d="M14.15 11.452L2.94.24A.762.762 0 002.385 0a.761.761 0 00-.554.24L.63 1.445a.76.76 0 00-.241.553c0 .209.08.393.24.553l9.455 9.455L.63 21.46a.76.76 0 00-.241.553c0 .21.08.394.24.554l1.203 1.203c.16.16.345.24.554.24.208 0 .393-.08.553-.24l11.21-11.211a.76.76 0 00.241-.554.762.762 0 00-.24-.553z" fill="#CAC7D7" fill-rule="nonzero"/></svg>
